material/.icons/material/mail.svg

<svg xmlns="http://www.w3.org/2000/svg" viewBox="0 0 24 24"><path d="M20 4H4c-1.11 0-2 .89-2 2v12a2 2 0 002 2h16a2 2 0 002-2V6a2 2 0 00-2-2m-3 13H7v-2h10m0-2H7v-2h10m3-2h-3V6h3"/></svg>

<?xml version="1.0" encoding="UTF-8"?><!DOCTYPE svg PUBLIC "-//W3C//DTD SVG 1.1//EN" "http://www.w3.org/Graphics/SVG/1.1/DTD/svg11.dtd"><svg xmlns="http://www.w3.org/2000/svg" xmlns:xlink="http://www.w3.org/1999/xlink" version="1.1" id="mdi-mail" width="24" height="24" viewBox="0 0 24 24"><path d="M20,4H4C2.89,4 2,4.89 2,6V18A2,2 0 0,0 4,20H20A2,2 0 0,0 22,18V6C22,4.89 21.1,4 20,4M17,17H7V15H17M17,13H7V11H17M20,9H17V6H20" /></svg>
